www/assets/icons/electrical_services.svg

<svg xmlns="http://www.w3.org/2000/svg" width="24" height="24" viewBox="0 0 24 24" fill='currentColor'><path d="M21 14c0-.55-.45-1-1-1h-2v2h2c.55 0 1-.45 1-1m-1 3h-2v2h2c.55 0 1-.45 1-1s-.45-1-1-1m-8-3h-2v4h2c0 1.1.9 2 2 2h3v-8h-3c-1.1 0-2 .9-2 2"/><path d="M5 13c0-1.1.9-2 2-2h1.5c1.93 0 3.5-1.57 3.5-3.5S10.43 4 8.5 4H5c-.55 0-1 .45-1 1s.45 1 1 1h3.5c.83 0 1.5.67 1.5 1.5S9.33 9 8.5 9H7c-2.21 0-4 1.79-4 4s1.79 4 4 4h2v-2H7c-1.1 0-2-.9-2-2"/></svg>

<svg width="24" height="24" viewBox="0 0 24 24" xmlns="http://www.w3.org/2000/svg" fill='currentColor'><path d="M21 14C21 13.45 20.55 13 20 13H18V15H20C20.55 15 21 14.55 21 14Z"/><path d="M20 17H18V19H20C20.55 19 21 18.55 21 18C21 17.45 20.55 17 20 17Z"/><path d="M12 14H10V18H12C12 19.1 12.9 20 14 20H17V12H14C12.9 12 12 12.9 12 14Z"/><path d="M5 13C5 11.9 5.9 11 7 11H8.5C10.43 11 12 9.43 12 7.5C12 5.57 10.43 4 8.5 4H5C4.45 4 4 4.45 4 5C4 5.55 4.45 6 5 6H8.5C9.33 6 10 6.67 10 7.5C10 8.33 9.33 9 8.5 9H7C4.79 9 3 10.79 3 13C3 15.21 4.79 17 7 17H9V15H7C5.9 15 5 14.1 5 13Z"/></svg>
